!!! OTL: Berkowitz560
!!! Chapter: 1
!!! Section: V
!!! Page: 142
!!! Mode: 
!!! Encoder: DJB
**kern
*staff1
*I"Piano
=1-
*clefG2
*k[]
*C:
*M4/4
8f/L
8g/
8a-/
8g-/J
4f/
4r
=2
8f/L
8g-/
8a-/
8g-/J
4cc-\
4r
=3
8a\L
8b\
8cc\
8a#\J
8b/L
8f#/
8c#/J
8r
=4
8d/L
8g/
8g-/
8f/J
4f#/
4r
=5
8b\L
8cc\
8a#\
8b\J
4an/
4r
=6
!!linebreak:original
8b-/L
8f/
8c/
8d/J
8e-/L
8a-/
8g-/J
8r
=7
8f/L
8e-/
8d/
8c/J
8B/L
8en/
8d/
8e/J
=8
8f/L
8c/
8G/
8A/J
4B/
4r
==
*-
